static/img/kroki/8f4d1f887821a90643f80174e3419fba.svg

<?xml version="1.0" encoding="us-ascii" standalone="no"?><svg xmlns="http://www.w3.org/2000/svg" xmlns:xlink="http://www.w3.org/1999/xlink" contentStyleType="text/css" height="152px" preserveAspectRatio="none" style="width:249px;height:152px;" version="1.1" viewBox="0 0 249 152" width="249px" zoomAndPan="magnify"><defs/><g><!--class digitalocean_certificate--><g id="elem_digitalocean_certificate"><rect codeLine="22" fill="#3D176E" height="39.7891" id="digitalocean_certificate" rx="2.5" ry="2.5" style="stroke:#000D19;stroke-width:0.5;" width="235" x="7" y="106.79"/><ellipse cx="22" cy="126.6845" fill="#ADD1B2" rx="11" ry="11" style="stroke:#181818;stroke-width:1.0;"/><path d="M24.9688,132.3252 Q24.3906,132.622 23.75,132.7627 Q23.1094,132.9189 22.4063,132.9189 Q19.9063,132.9189 18.5781,131.2783 Q17.2656,129.622 17.2656,126.497 Q17.2656,123.372 18.5781,121.7158 Q19.9063,120.0595 22.4063,120.0595 Q23.1094,120.0595 23.75,120.2158 Q24.4063,120.372 24.9688,120.6689 L24.9688,123.3877 Q24.3438,122.8095 23.75,122.5439 Q23.1563,122.2627 22.5313,122.2627 Q21.1875,122.2627 20.5,123.3408 Q19.8125,124.4033 19.8125,126.497 Q19.8125,128.5908 20.5,129.6689 Q21.1875,130.7314 22.5313,130.7314 Q23.1563,130.7314 23.75,130.4658 Q24.3438,130.1845 24.9688,129.6064 L24.9688,132.3252 Z " fill="#000000"/><text fill="#D9B8FF" font-family="Helvetica" font-size="17" lengthAdjust="spacing" textLength="193" x="41" y="132.5698">digitalocean_certificate</text></g><!--class digitalocean_team--><g id="elem_digitalocean_team"><rect codeLine="24" fill="#3D176E" height="39.7891" id="digitalocean_team" rx="2.5" ry="2.5" style="stroke:#000D19;stroke-width:0.5;" width="196" x="26.5" y="7"/><ellipse cx="41.5" cy="26.8945" fill="#ADD1B2" rx="11" ry="11" style="stroke:#181818;stroke-width:1.0;"/><path d="M44.4688,32.5352 Q43.8906,32.832 43.25,32.9727 Q42.6094,33.1289 41.9063,33.1289 Q39.4063,33.1289 38.0781,31.4883 Q36.7656,29.832 36.7656,26.707 Q36.7656,23.582 38.0781,21.9258 Q39.4063,20.2695 41.9063,20.2695 Q42.6094,20.2695 43.25,20.4258 Q43.9063,20.582 44.4688,20.8789 L44.4688,23.5977 Q43.8438,23.0195 43.25,22.7539 Q42.6563,22.4727 42.0313,22.4727 Q40.6875,22.4727 40,23.5508 Q39.3125,24.6133 39.3125,26.707 Q39.3125,28.8008 40,29.8789 Q40.6875,30.9414 42.0313,30.9414 Q42.6563,30.9414 43.25,30.6758 Q43.8438,30.3945 44.4688,29.8164 L44.4688,32.5352 Z " fill="#000000"/><text fill="#D9B8FF" font-family="Helvetica" font-size="17" lengthAdjust="spacing" textLength="154" x="60.5" y="32.7798">digitalocean_team</text></g><!--link digitalocean_team to digitalocean_certificate--><g id="link_digitalocean_team_digitalocean_certificate"><path codeLine="26" d="M124.5,47.22 C124.5,62.49 124.5,83.92 124.5,100.53 " fill="none" id="digitalocean_team-to-digitalocean_certificate" style="stroke:#1A83AF;stroke-width:2.0;"/><polygon fill="#1A83AF" points="124.5,105.41,128.5,96.41,124.5,100.41,120.5,96.41,124.5,105.41" style="stroke:#1A83AF;stroke-width:2.0;"/></g><!--SRC=[XP31IiD048RlVOg5d0kDGTjSXBHGz5B4UXEHoUvikoJPBRDJInNVtSQghDcclSx_ySytipOA1JORtei6cnB93tnbx0O86b4GkTtCrOv4eZNeRDmDvyxoHM013OexhD-GZOGkyRGsihBelRWAeYd8QaLkQzMndWciFqHeEQ1cDNXVC9Cfjuo1ZChBYTPTibkQP2eTts24EL98FyXeD59ftaKkhZfxzn-nDEyeql1f2ySOQKOhlgcpbYqHI4Q7_kQzZW-WbB4hSHtC7ezEP97-pPThK6xNqXfg7wxnZ8IEznkSHLTXFb5wV1A-xuDb-pcXpCemr4uYs5U9n4OVv1d5n-3p5C9uQ6-pU3fyJj9YaXNpb-5jR-yN]--></g></svg>

<svg xmlns="http://www.w3.org/2000/svg" width="249" height="152" preserveAspectRatio="none" style="width:249px;height:152px"><rect width="235" height="39.789" x="7" y="106.79" fill="#3D176E" rx="2.5" ry="2.5" style="stroke:#000d19;stroke-width:.5"/><circle cx="22" cy="126.684" r="11" fill="#ADD1B2" style="stroke:#181818;stroke-width:1"/><path d="M24.969 132.325q-.578.297-1.219.438-.64.156-1.344.156-2.5 0-3.828-1.64-1.312-1.657-1.312-4.782t1.312-4.781q1.328-1.656 3.828-1.656.703 0 1.344.156.656.156 1.219.453v2.719q-.625-.579-1.219-.844-.594-.281-1.219-.281-1.343 0-2.031 1.078-.688 1.062-.688 3.156 0 2.094.688 3.172.688 1.062 2.031 1.062.625 0 1.219-.265.594-.281 1.219-.86v2.72Z"/><text x="41" y="132.57" fill="#D9B8FF" font-family="Helvetica" font-size="17" textLength="193">digitalocean_certificate</text><rect width="196" height="39.789" x="26.5" y="7" fill="#3D176E" rx="2.5" ry="2.5" style="stroke:#000d19;stroke-width:.5"/><circle cx="41.5" cy="26.895" r="11" fill="#ADD1B2" style="stroke:#181818;stroke-width:1"/><path d="M44.469 32.535q-.578.297-1.219.438-.64.156-1.344.156-2.5 0-3.828-1.64-1.312-1.657-1.312-4.782t1.312-4.781q1.328-1.656 3.828-1.656.703 0 1.344.156.656.156 1.219.453v2.719q-.625-.578-1.219-.844-.594-.281-1.219-.281-1.343 0-2.031 1.078-.688 1.062-.688 3.156 0 2.094.688 3.172.688 1.062 2.031 1.062.625 0 1.219-.265.594-.281 1.219-.86v2.72Z"/><text x="60.5" y="32.78" fill="#D9B8FF" font-family="Helvetica" font-size="17" textLength="154">digitalocean_team</text><path fill="none" d="M124.5 47.22v53.31" style="stroke:#1a83af;stroke-width:2"/><path fill="#1A83AF" d="m124.5 105.41 4-9-4 4-4-4 4 9z" style="stroke:#1a83af;stroke-width:2"/></svg>
